azure-patterns/svg-jupytor-notebook.svg

<svg xmlns="http://www.w3.org/2000/svg" viewBox="0 0 72 73">
                                
                            
    <path d="M42.6655 22.8305C44.4461 22.8305 45.8896 21.3906 45.8896 19.6145C45.8896 17.8383 44.4461 16.3984 42.6655 16.3984C40.8849 16.3984 39.4414 17.8383 39.4414 19.6145C39.4414 21.3906 40.8849 22.8305 42.6655 22.8305Z" fill="#DA3A00"></path>
    <path d="M19.353 53.0102C21.1336 53.0102 22.5771 51.5703 22.5771 49.7942C22.5771 48.018 21.1336 46.5781 19.353 46.5781C17.5724 46.5781 16.1289 48.018 16.1289 49.7942C16.1289 51.5703 17.5724 53.0102 19.353 53.0102Z" fill="#DA3A00"></path>
    <path d="M5.89814 6.81294V12.6884H1V15.657H5.89814V34.1492H1V37.1178H5.89814V55.7337H1V58.7023H5.89814V64.2067L56.0576 72.0612V0.9375L5.89814 6.81294ZM47.5013 52.9506C47.5013 55.4863 45.4553 57.5272 42.9132 57.5272C40.3711 57.5272 38.3251 55.4863 38.3251 52.9506C38.3251 52.4558 38.3871 51.961 38.5731 51.5281L21.5226 27.4697V43.7973C24.0027 44.6631 25.7387 47.0133 25.7387 49.7964C25.7387 53.3216 22.8866 56.1666 19.3525 56.1666C15.8184 56.1666 12.9663 53.3216 12.9663 49.7964C12.9663 47.0133 14.7644 44.6631 17.2445 43.7973V24.8722C15.5704 24.1919 14.3924 22.522 14.3924 20.6047C14.3924 18.069 16.4384 16.0281 18.9805 16.0281C21.5226 16.0281 23.5686 18.069 23.5686 20.6047C23.5686 21.2232 23.4446 21.8417 23.1966 22.3983L40.8051 47.3844V25.7999C38.1391 24.9959 36.155 22.522 36.155 19.6152C36.155 16.0899 39.0691 13.1831 42.6032 13.1831C46.1373 13.1831 49.0514 16.0899 49.0514 19.6152C49.0514 22.3983 47.3153 24.7485 44.8352 25.6762V48.8687C46.4473 49.6108 47.5013 51.157 47.5013 52.9506Z" fill="#DA3A00"></path>
    <path d="M59.5933 66.8037L71.0016 68.3499V4.21484L59.5312 4.89516L66.1034 7.30718V64.7628L59.5933 66.8037Z" fill="#DA3A00"></path>
</svg>

<svg xmlns="http://www.w3.org/2000/svg" viewBox="0 0 72 73"><path d="M42.666 22.83a3.22 3.22 0 0 0 3.224-3.215 3.22 3.22 0 0 0-3.224-3.217 3.22 3.22 0 0 0-3.225 3.216 3.22 3.22 0 0 0 3.224 3.216zM19.353 53.01a3.22 3.22 0 0 0 3.224-3.216 3.22 3.22 0 0 0-3.224-3.216 3.22 3.22 0 0 0-3.224 3.216 3.22 3.22 0 0 0 3.224 3.216z" fill="#DA3A00"/><path d="M5.898 6.813v5.875H1v2.969h4.898v18.492H1v2.969h4.898v18.616H1v2.968h4.898v5.505l50.16 7.854V.937L5.898 6.814zM47.501 52.95a4.572 4.572 0 0 1-4.588 4.576 4.572 4.572 0 0 1-4.588-4.576c0-.495.062-.99.248-1.423L21.523 27.47v16.327c2.48.866 4.216 3.216 4.216 6a6.37 6.37 0 0 1-6.387 6.37 6.37 6.37 0 0 1-6.386-6.37c0-2.784 1.798-5.134 4.278-6V24.872a4.613 4.613 0 0 1-2.852-4.267 4.572 4.572 0 0 1 4.588-4.577 4.572 4.572 0 0 1 4.589 4.577c0 .618-.124 1.237-.372 1.793l17.608 24.986V25.8c-2.666-.804-4.65-3.278-4.65-6.185 0-3.525 2.914-6.432 6.448-6.432 3.534 0 6.448 2.907 6.448 6.432 0 2.783-1.736 5.134-4.216 6.061V48.87c1.612.742 2.666 2.288 2.666 4.082zM59.593 66.804l11.409 1.546V4.215l-11.47.68 6.571 2.412v57.456l-6.51 2.04z" fill="#DA3A00"/></svg>
